X: 60
T:Otero Covelo. Curso 3, Ejercicio 4
M:6/8
L:1/16
Q:270
K:C
CEGAGE CEGAGE | DFABAF DFABAF |
EGBcBG EGBcBG | DFABAF DFABAF | CEGAGE CEGAGE |
B,DFGFD B,DFGFD | CEGAGE C6 | cBcAFA cBcAFA |
BABGEG BABGEG | AGAFDF AGAFDF | GFGECE GFGECE | 
FEFDB,D FEFDB,D | CB,CDEF GAGFED | C2G2E2 C6 |
CB,CDEF ECDEFG | FDEFGA GEFGAB | AFGABc BGABAG |
c6 cBAGAB | cAGFGA BGFEFG | AFEDEF GEDCDE |
FDCB,CD ECB,CDE | FEFGAB c2G2E2 | C12||

